build/redact/BorderTopOutline.svg

<svg xmlns="http://www.w3.org/2000/svg" fill="none" viewBox="0 0 24 24" focusable="false"><path d="M0 0H24V24H0z" transform="matrix(1 0 0 -1 0 24)"/><path fill="#74767B" fill-rule="evenodd" d="M6.79163 4.10166C6.775 4.10567 6.75867 4.11028 6.74267 4.11548C5.47474 4.44241 4.4737 5.43357 4.13271 6.69579C4.12009 6.72642 4.10967 6.75842 4.10166 6.79163C4.0351 7.06756 4 7.35511 4 7.65L4 8.3072C4 8.66619 4.29101 8.9572 4.65 8.9572C5.00899 8.9572 5.3 8.66619 5.3 8.3072L5.3 8.0979C5.30441 8.06733 5.30669 8.03607 5.30669 8.00428L5.30669 7.6501C5.30669 6.35223 6.35882 5.3001 7.65669 5.3001L16.3491 5.3001C17.647 5.3001 18.6991 6.35223 18.6991 7.6501L18.6991 8.00428C18.6991 8.01107 18.6992 8.01784 18.6994 8.02458L18.6994 8.3072C18.6994 8.66619 18.9904 8.9572 19.3494 8.9572C19.7084 8.9572 19.9994 8.66619 19.9994 8.3072L19.9994 7.65C19.9994 7.35511 19.9643 7.06756 19.8978 6.79163L19.8936 6.77541C19.5698 5.45863 18.5313 4.42289 17.213 4.10294L17.2078 4.10166C16.9319 4.0351 16.6443 4 16.3494 4L15.6919 4L15.6806 4.0001L12.6686 4.0001L12.6572 4L11.3422 4L11.3308 4.0001L8.31888 4.0001L8.30752 4L7.65 4C7.35511 4 7.06756 4.0351 6.79163 4.10166ZM11.9942 9.57148C12.3532 9.57148 12.6442 9.28047 12.6442 8.92148L12.6442 7.72637C12.6442 7.36738 12.3532 7.07637 11.9942 7.07637C11.6353 7.07637 11.3442 7.36738 11.3442 7.72637L11.3442 8.92148C11.3442 9.28047 11.6353 9.57148 11.9942 9.57148ZM19.9994 11.3405C19.9994 10.9815 19.7084 10.6905 19.3494 10.6905C18.9904 10.6905 18.6994 10.9815 18.6994 11.3405L18.6994 12.6549C18.6994 13.0138 18.9904 13.3049 19.3494 13.3049C19.7084 13.3049 19.9994 13.0138 19.9994 12.6549L19.9994 11.3405ZM5.3 11.3405C5.3 10.9815 5.00899 10.6905 4.65 10.6905C4.29101 10.6905 4 10.9815 4 11.3405L4 12.6549C4 13.0138 4.29101 13.3049 4.65 13.3049C5.00899 13.3049 5.3 13.0138 5.3 12.6549L5.3 11.3405ZM7.7208 11.3477C7.36182 11.3477 7.0708 11.6387 7.0708 11.9977C7.0708 12.3567 7.36182 12.6477 7.7208 12.6477L8.91701 12.6477C9.276 12.6477 9.56701 12.3567 9.56701 11.9977C9.56701 11.6387 9.276 11.3477 8.91701 11.3477L7.7208 11.3477ZM15.0719 11.3478C14.7129 11.3478 14.4219 11.6389 14.4219 11.9978C14.4219 12.3568 14.7129 12.6478 15.0719 12.6478L16.2681 12.6478C16.6271 12.6478 16.9181 12.3568 16.9181 11.9978C16.9181 11.6389 16.6271 11.3478 16.2681 11.3478L15.0719 11.3478ZM11.9942 16.9172C12.3532 16.9172 12.6442 16.6262 12.6442 16.2672L12.6442 15.0721C12.6442 14.7131 12.3532 14.4221 11.9942 14.4221C11.6353 14.4221 11.3442 14.7131 11.3442 15.0721L11.3442 16.2672C11.3442 16.6262 11.6353 16.9172 11.9942 16.9172ZM19.9994 15.6881C19.9994 15.3291 19.7084 15.0381 19.3494 15.0381C18.9904 15.0381 18.6994 15.3291 18.6994 15.6881L18.6994 16.3453C18.6994 16.5367 18.6767 16.722 18.634 16.8989C18.6217 16.9501 18.6157 17.0013 18.6157 17.0518C18.6157 17.3452 18.8157 17.6113 19.1135 17.6832C19.4625 17.7673 19.8136 17.5527 19.8978 17.2037C19.9643 16.9278 19.9994 16.6402 19.9994 16.3453L19.9994 15.6881ZM5.3 15.6881C5.3 15.3291 5.00899 15.0381 4.65 15.0381C4.29101 15.0381 4 15.3291 4 15.6881L4 16.3453C4 16.6402 4.0351 16.9278 4.10166 17.2037C4.18583 17.5527 4.53696 17.7673 4.88594 17.6832C5.1837 17.6113 5.38368 17.3452 5.38368 17.0518C5.38368 17.0013 5.37777 16.9501 5.36541 16.8989C5.32276 16.722 5.3 16.5367 5.3 16.3453L5.3 15.6881ZM7.09645 18.6299C6.74747 18.5457 6.39633 18.7604 6.31216 19.1094C6.29981 19.1606 6.29389 19.2118 6.29389 19.2623C6.29389 19.5557 6.49387 19.8218 6.79163 19.8937C7.06756 19.9602 7.35511 19.9953 7.65 19.9953L8.30752 19.9953C8.6665 19.9953 8.95752 19.7043 8.95752 19.3453C8.95752 18.9863 8.6665 18.6953 8.30752 18.6953L7.65 18.6953C7.45856 18.6953 7.27331 18.6726 7.09645 18.6299ZM17.2078 19.8937C17.5056 19.8218 17.7055 19.5557 17.7055 19.2623C17.7055 19.2118 17.6996 19.1606 17.6873 19.1094C17.6031 18.7604 17.252 18.5457 16.903 18.6299C16.7261 18.6726 16.5409 18.6953 16.3494 18.6953L15.6919 18.6953C15.3329 18.6953 15.0419 18.9863 15.0419 19.3453C15.0419 19.7043 15.3329 19.9953 15.6919 19.9953L16.3494 19.9953C16.6443 19.9953 16.9319 19.9602 17.2078 19.8937ZM11.3422 18.6953C10.9832 18.6953 10.6922 18.9863 10.6922 19.3453C10.6922 19.7043 10.9832 19.9953 11.3422 19.9953L12.6572 19.9953C13.0162 19.9953 13.3072 19.7043 13.3072 19.3453C13.3072 18.9863 13.0162 18.6953 12.6572 18.6953L11.3422 18.6953Z"/></svg>

<svg xmlns="http://www.w3.org/2000/svg" fill="none" viewBox="0 0 24 24" focusable="false"><path fill="#74767B" fill-rule="evenodd" d="M6.79 4.1c-.02 0-.04.01-.05.01a3.66 3.66 0 0 0-2.61 2.58c-.01.03-.03.06-.03.1-.07.27-.1.56-.1.86v.65c0 .36.29.65.64.65.36 0 .65-.29.65-.65v-.21c.01-.03.01-.06.01-.09v-.35c0-1.3 1.05-2.35 2.35-2.35h8.69c1.3 0 2.35 1.05 2.35 2.35v.65c0 .36.3.65.65.65.36 0 .65-.29.65-.65v-.65c0-.3-.03-.59-.1-.86v-.02a3.65 3.65 0 0 0-2.68-2.67h-.01c-.27-.07-.56-.1-.86-.1h-8.7c-.29 0-.58.03-.85.1m5.2 5.47c.36 0 .65-.29.65-.65v-1.2c0-.36-.29-.65-.65-.65s-.65.29-.65.65v1.2c0 .36.29.65.65.65m8 1.77c0-.36-.29-.65-.65-.65-.35 0-.65.29-.65.65v1.31c0 .36.3.65.65.65.36 0 .65-.29.65-.65zm-14.7 0c0-.36-.29-.65-.65-.65-.35 0-.64.29-.64.65v1.31c0 .36.29.65.64.65.36 0 .65-.29.65-.65zm2.43 0c-.36 0-.65.29-.65.65s.29.65.65.65h1.19c.36 0 .65-.29.65-.65s-.29-.65-.65-.65zm7.35 0c-.36 0-.65.29-.65.65s.29.65.65.65h1.19c.36 0 .65-.29.65-.65s-.29-.65-.65-.65zm-3.08 5.57c.36 0 .65-.29.65-.65v-1.19c0-.36-.29-.65-.65-.65s-.65.29-.65.65v1.19c0 .36.29.65.65.65m8-1.23c0-.36-.29-.65-.65-.65-.35 0-.65.29-.65.65v.66c0 .19-.02.38-.06.55-.01.06-.02.11-.02.16a.65.65 0 0 0 1.28.15c.07-.28.1-.56.1-.86zm-14.7 0c0-.36-.29-.65-.65-.65-.35 0-.64.29-.64.65v.66c0 .3.03.58.1.86a.65.65 0 0 0 1.28-.15c0-.05-.01-.1-.02-.16-.04-.17-.07-.36-.07-.55zm1.8 2.94c-.35-.08-.7.14-.78.48-.02.06-.02.11-.02.16 0 .29.2.56.5.63.27.07.56.1.85.1h.66c.36 0 .65-.29.65-.65s-.29-.65-.65-.65h-.66c-.19 0-.37-.02-.55-.07m10.11 1.27c.3-.07.5-.34.5-.63 0-.05-.01-.1-.02-.16a.654.654 0 0 0-.78-.48c-.18.05-.36.07-.56.07h-.65c-.36 0-.65.29-.65.65s.29.65.65.65h.65c.3 0 .59-.03.86-.1m-5.86-1.2c-.36 0-.65.29-.65.65s.29.65.65.65h1.31c.36 0 .65-.29.65-.65s-.29-.65-.65-.65z"/></svg>
